X: 23
T: Ievan Polkka
Z: NfldWhistler
S: https://thesession.org/tunes/418#setting48270
R: polka
M: 2/4
L: 1/8
K: Bmin
|:B2 Bc|dB Bd|cA Ac|d/c/B/A/ BF|
B2 Bc|dB Bd|ee dc|1 dB BF:|2 dB B2||
|:ff ed|cA Ac|ee dc|Bc de|
ff ed|cA Ac|ee dc|1 dB B2:|2 dB BF||

